X:1
T:Title
%%score 1 2 3
L:1/8
M:3/2
K:C
V:1 treble nm="Part_1"
V:2 treble nm="Part_2"
V:3 treble-8 nm="Part_3"
V:1
 c12 | A12 | D12 | F12 | z12 | c8 z2 B2 | c6 B2 c2 A2 | G4 F2 E4 D2 | C2 E4 G4 F2 | G6 F2 E4 | %10
 z2 F2 G4 D4 | F4 A4 c2 _B2 | A2 F2 E4 F4 | G12 || A4 _B2 A2 B2 G2 | FG A4 G3 ^FFE | %16
 G4 z2 B2 c2 d2- | d2 B2 G2 G3 cBA | c2 B2 A4 z4 | E8 A4 | G4 F6 E2 | E6 D2 E2 C2 | E4 z4 G4 | %23
 A4 _B6 A2 | c4 _e4 e4 | d6 c2 d2 _B2 | d2 _B2 A4 z4 | _B2 G4 AB c2 d2- |[M:2/2] d2 c3 _BBA | %29
[M:3/2] A12 | _B6 A4 G2 | F2 G2 A6 G2 | _B6 A2 B2 G2 | F2 G2 A4 _B4 | c12 | A4 F4 z4 | %36
 E4 FG A4 _B2 | c4 _B2 A4 G2 | A2 c8 B2 | c4 d2 c2 _B2 A2 | A4 F2 D4 F2 | F4 A4 z2 D2 | %42
 C4 A4 _B2 A2 | c2 A2 G4 F4 | z2 F2 F4 E2 E2 | F2 c4 _B2 A4 | G4 z4 G4 | A4 c4 _B2 G2 | %48
 A2 G4 F4 E2 | F4 D4 C4 | z4 c2 _B4 A2 | A8 G4 | A4 _B2 A2 G2 F2 | E4 z2 E2 F4 | G4 F4 z4 | %55
 F6 D2 C4 | c6 B2 B2 A2 | c8 z4 | c3 A G8 | F8 D4 | F12 |] %61
V:2
 F6 G2 A2 _B2 | c4 z2 d2 c2 _B2 | A12 | z12 | c8 d4 | e4 d2 c2 B4 | A8 z4 | Bc d4 c4 A2 | %8
 G6 c3 BBA | c4 z2 d2 c2 A2- | A2 c2 _B2 G4 z2 | _B2 A2 F4 z4 | A2 _B2 c2 d2 c=BcA | c12 || F8 D4 | %15
 C2 E4 D4 C2 | D12 | z12 | G4 c4 _B4 | A4 _B2 A3 G F2 | E4 z2 AB c4 | B2 A8 G2 | A2 F2 E4 C4 | %23
 z4 F4 G4- | G2 A2 _B8 | A2 F4 A4 G2 | A4 F4 D4 | G4 c2 c4 A2 |[M:2/2] D4 C2 E2 | %29
[M:3/2] F6 A2 G2 F2 | G4 z2 c2 _B4 | A4 F2 E4 D2 | D12 | D4 G2 F4 E2 | F12 | d4 A2 d4 c2 | %36
 _B4 A2 G2 A2 F2 | E8 D4 | C4 DE F3 EED | F4 z4 z4 | c8 d2 _B2 | A4 z2 d2 c2 d2 | e4 f6 e2 | %43
 e4 d6 c2 | c6 B2 B2 A2 | c4 z4 C4 | D4 _E6 D2 | F6 _E2 E2 D2 | C6 _B,2 B,2 A,2 | C4 z4 E4 | %50
 D4 F6 E2 | E6 D2 E2 C2 | E4 z4 z4 | G8 A4 | E4 A4 _B2 c2 | _B4 A6 G2 | G6 F4 E2 | G4 z4 A2 _B2 | %58
 G4 d8 | c8 B4 | c12 |] %61
V:3
[K:F] F12- | F12 | f12 | a12 | f8 f4 | c8 G4 | F12 | G4 A4 c2 d2 | e4 g2 e2 d4 | c4 B4 c4 | %10
 F4 z4 G4 | d8 e4 | f4 g2 e2 d4 | c12 || d8 B4 | A2 c4 B2 A4 | G12 | g8 e2 d2 | c4 F4 G4 | A12 | %20
 z4 d4 c2 A2 | A4 c4 B4 | A8 z4 | c4 d4 c4 | f4 g8 | f4 d2 f2 e4 | d12 | z2 e2 c4 A4 | %28
[M:2/2] G2 A4 c2 |[M:3/2] d12 | G4 F4 G4 | A4 c4 B4 | G12 | z2 B4 A2 G4 | F12 | f8 d4 | g4 f6 d2 | %37
 c8 B4 | c4 A2 F2 G4 | F12 | f8 d4- | d4 f8 | g4 d6 c2 | c4 B4 A4 | F4 A4 G4 | F12 | B4 c4 B4 | %47
 A4 F4 G2 B2 | c4 B2 A2 G4 | F8 z4 | B4 d6 c2 | c4 B8 | A12 | G8 F4 | c4 d4 g2 f2 | d4 f4 e4 | %56
 c4 d6 c2 | c8 A4 | c4 B8 | A8 G4 | F12 |] %61

